invoice-send-outline.svg

<svg  viewBox="0 0 24 24" fill="currentColor"><path  d="M24 18L14 13V17L18 18L14 19V23L24 18M19 13.26L21 14.26V3H3V22L6 20L9 22L12 20V17.6L9 19.6L6 17.6L5 18.26V5H19V13.26Z"/></svg>

<svg fill="currentColor" viewBox="0 0 24 24"><path d="m24 18-10-5v4l4 1-4 1v4zm-5-4.74 2 1V3H3v19l3-2 3 2 3-2v-2.4l-3 2-3-2-1 .66V5h14z"/></svg>
